icons/Pin_Area_1.svg

<svg width="24" height="24" viewBox="0 0 24 24" fill="none" xmlns="http://www.w3.org/2000/svg">
<path fill-rule="evenodd" clip-rule="evenodd" d="M12,4.25c-1.8285,0 -3.91667,1.51251 -3.91667,3.83824c0,1.12958 0.58807,2.38786 1.41458,3.57256c0.81289,1.1651 1.78479,2.1583 2.40009,2.7389c0.0347,0.0327 0.0707,0.0436 0.102,0.0436c0.0313,0 0.0673,-0.0109 0.102,-0.0436c0.6153,-0.5806 1.5872,-1.5738 2.4001,-2.7389c0.8265,-1.1847 1.4146,-2.44298 1.4146,-3.57256c0,-2.32573 -2.0882,-3.83824 -3.9167,-3.83824zM6.58333,8.08824c0,-3.32133 2.93746,-5.33824 5.41667,-5.33824c2.4792,0 5.4167,2.01691 5.4167,5.33824c0,1.59546 -0.8029,3.16736 -1.6844,4.43086c-0.8951,1.2829 -1.9482,2.3557 -2.6009,2.9716c-0.6396,0.6035 -1.6232,0.6035 -2.2628,0c-0.6527,-0.6159 -1.70577,-1.6887 -2.60088,-2.9716c-0.88148,-1.2635 -1.68439,-2.8354 -1.68439,-4.43086zM12,7.08333c-0.5063,0 -0.9167,0.41041 -0.9167,0.91667c0,0.50626 0.4104,0.91667 0.9167,0.91667c0.5063,0 0.9167,-0.41041 0.9167,-0.91667c0,-0.50626 -0.4104,-0.91667 -0.9167,-0.91667zM9.58333,8c0,-1.33469 1.08197,-2.41667 2.41667,-2.41667c1.3347,0 2.4167,1.08198 2.4167,2.41667c0,1.33469 -1.082,2.4167 -2.4167,2.4167c-1.3347,0 -2.41667,-1.08201 -2.41667,-2.4167zM5.70403,13.8316c0.18741,-0.0772 0.38227,-0.1508 0.58403,-0.2206c0.04505,0.0665 0.08989,0.1317 0.13438,0.1955c0.26368,0.3779 0.53784,0.7379 0.81168,1.0756c-0.34312,0.1023 -0.66379,0.215 -0.95897,0.3365c-0.71541,0.2946 -1.24499,0.6264 -1.58401,0.9564c-0.33665,0.3278 -0.44114,0.6063 -0.44114,0.825c0,0.2187 0.10449,0.4972 0.44114,0.8249c0.33902,0.3301 0.8686,0.6619 1.58401,0.9564c1.42731,0.5878 3.45094,0.9687 5.72485,0.9687c2.2739,0 4.2975,-0.3809 5.7248,-0.9687c0.7155,-0.2945 1.245,-0.6263 1.5841,-0.9564c0.3366,-0.3277 0.4411,-0.6062 0.4411,-0.8249c0,-0.2187 -0.1045,-0.4972 -0.4411,-0.825c-0.3391,-0.33 -0.8686,-0.6618 -1.5841,-0.9564c-0.2951,-0.1215 -0.6158,-0.2342 -0.9589,-0.3365c0.2738,-0.3377 0.548,-0.6977 0.8117,-1.0756c0.0445,-0.0638 0.0893,-0.129 0.1343,-0.1955c0.2018,0.0698 0.3967,0.1434 0.5841,0.2206c0.8227,0.3388 1.538,0.7612 2.0592,1.2686c0.5236,0.5098 0.8948,1.152 0.8948,1.8998c0,0.7478 -0.3712,1.39 -0.8948,1.8997c-0.5212,0.5075 -1.2365,0.9299 -2.0592,1.2687c-1.6491,0.679 -3.8755,1.0816 -6.296,1.0816c-2.42051,0 -4.64688,-0.4026 -6.29597,-1.0816c-0.82278,-0.3388 -1.538,-0.7612 -2.05923,-1.2687c-0.52359,-0.5097 -0.8948,-1.1519 -0.8948,-1.8997c0,-0.7478 0.37121,-1.39 0.8948,-1.8998c0.52123,-0.5074 1.23645,-0.9298 2.05923,-1.2686z" fill="#002B51"/>
</svg>

<svg width="24" height="24" viewBox="0 0 24 24" fill="none" xmlns="http://www.w3.org/2000/svg">
<path fill-rule="evenodd" clip-rule="evenodd" d="M12 4.25C10.1715 4.25 8.08333 5.76251 8.08333 8.08824C8.08333 9.21782 8.6714 10.4761 9.49791 11.6608C10.3108 12.8259 11.2827 13.8191 11.898 14.3997C11.9327 14.4324 11.9687 14.4433 12 14.4433C12.0313 14.4433 12.0673 14.4324 12.102 14.3997C12.7173 13.8191 13.6892 12.8259 14.5021 11.6608C15.3286 10.4761 15.9167 9.21782 15.9167 8.08824C15.9167 5.76251 13.8285 4.25 12 4.25ZM6.58333 8.08824C6.58333 4.76691 9.52079 2.75 12 2.75C14.4792 2.75 17.4167 4.76691 17.4167 8.08824C17.4167 9.6837 16.6138 11.2556 15.7323 12.5191C14.8372 13.802 13.7841 14.8748 13.1314 15.4907C12.4918 16.0942 11.5082 16.0942 10.8686 15.4907C10.2159 14.8748 9.16283 13.802 8.26772 12.5191C7.38624 11.2556 6.58333 9.6837 6.58333 8.08824ZM12 7.08333C11.4937 7.08333 11.0833 7.49374 11.0833 8C11.0833 8.50626 11.4937 8.91667 12 8.91667C12.5063 8.91667 12.9167 8.50626 12.9167 8C12.9167 7.49374 12.5063 7.08333 12 7.08333ZM9.58333 8C9.58333 6.66531 10.6653 5.58333 12 5.58333C13.3347 5.58333 14.4167 6.66531 14.4167 8C14.4167 9.33469 13.3347 10.4167 12 10.4167C10.6653 10.4167 9.58333 9.33469 9.58333 8ZM5.70403 13.8316C5.89144 13.7544 6.0863 13.6808 6.28806 13.611C6.33311 13.6775 6.37795 13.7427 6.42244 13.8065C6.68612 14.1844 6.96028 14.5444 7.23412 14.8821C6.891 14.9844 6.57033 15.0971 6.27515 15.2186C5.55974 15.5132 5.03016 15.845 4.69114 16.175C4.35449 16.5028 4.25 16.7813 4.25 17C4.25 17.2187 4.35449 17.4972 4.69114 17.8249C5.03016 18.155 5.55974 18.4868 6.27515 18.7813C7.70246 19.3691 9.72609 19.75 12 19.75C14.2739 19.75 16.2975 19.3691 17.7248 18.7813C18.4403 18.4868 18.9698 18.155 19.3089 17.8249C19.6455 17.4972 19.75 17.2187 19.75 17C19.75 16.7813 19.6455 16.5028 19.3089 16.175C18.9698 15.845 18.4403 15.5132 17.7248 15.2186C17.4297 15.0971 17.109 14.9844 16.7659 14.8821C17.0397 14.5444 17.3139 14.1844 17.5776 13.8065C17.6221 13.7427 17.6669 13.6775 17.7119 13.611C17.9137 13.6808 18.1086 13.7544 18.296 13.8316C19.1187 14.1704 19.834 14.5928 20.3552 15.1002C20.8788 15.61 21.25 16.2522 21.25 17C21.25 17.7478 20.8788 18.39 20.3552 18.8997C19.834 19.4072 19.1187 19.8296 18.296 20.1684C16.6469 20.8474 14.4205 21.25 12 21.25C9.57949 21.25 7.35312 20.8474 5.70403 20.1684C4.88125 19.8296 4.16603 19.4072 3.6448 18.8997C3.12121 18.39 2.75 17.7478 2.75 17C2.75 16.2522 3.12121 15.61 3.6448 15.1002C4.16603 14.5928 4.88125 14.1704 5.70403 13.8316Z" fill="#002B51"/>
</svg>
